src/images/icons/pawprint.svg

<svg width="24" height="24" viewBox="0 0 24 24" fill="none" xmlns="http://www.w3.org/2000/svg">
<g clip-path="url(#clip0_31009_547)">
<path d="M15.3613 14.3621C15.0946 12.3788 13.8528 10.6897 12.0393 9.84408C10.2259 8.99851 8.13364 9.13284 6.44302 10.2034L2.36887 12.7829C1.69287 13.211 1.18351 13.8319 0.895812 14.5784C0.608038 15.3251 0.569171 16.1272 0.783156 16.8984C0.997551 17.6695 1.44487 18.3367 2.07661 18.8281C2.70843 19.3193 3.46541 19.5884 4.26566 19.6062L4.31795 19.6072C6.32515 19.6661 8.23238 20.5633 9.55763 22.0739C9.89947 22.4634 10.3104 22.7714 10.7701 22.9858C11.02 23.1023 11.2847 23.1912 11.5602 23.2506C12.3426 23.4188 13.1413 23.3326 13.87 23.0013C14.5983 22.6697 15.1881 22.1243 15.5753 21.424C15.9625 20.7235 16.1108 19.9341 16.0042 19.141L15.3613 14.3621ZM13.2874 21.7207C12.3605 22.1422 11.2867 21.9114 10.6152 21.1461C9.81708 20.2364 8.84232 19.5131 7.76431 19.0104C6.68729 18.5082 5.50694 18.2263 4.29792 18.1995L4.2635 18.1988C3.25999 18.1624 2.40849 17.492 2.1386 16.5219C1.86646 15.541 2.26132 14.5161 3.1214 13.9715L7.19572 11.392C8.47945 10.5792 10.0677 10.4772 11.4446 11.1192C12.8215 11.7613 13.7645 13.0437 13.9671 14.5496L14.6099 19.3284C14.7455 20.3378 14.214 21.2991 13.2874 21.7207Z" fill="#54ADFF"/>
<path d="M4.72141 9.39524C5.54872 9.45292 6.34539 9.13609 6.96485 8.50306C7.55409 7.90059 7.91268 7.07743 7.9743 6.18489C8.03553 5.29277 7.79336 4.42827 7.29259 3.75049C6.76615 3.03851 6.02075 2.61496 5.19438 2.55832C3.53247 2.44301 2.0737 3.88292 1.94231 5.76906C1.8395 7.27113 2.60962 8.6087 3.76712 9.14845C4.06268 9.28627 4.38352 9.37204 4.72141 9.39524ZM3.34575 5.86588C3.42319 4.75444 4.20887 3.90011 5.09756 3.96176C5.25809 3.97278 5.41412 4.01382 5.56098 4.0823C5.78767 4.18801 5.99296 4.35909 6.16113 4.58682C6.4637 4.996 6.60917 5.52933 6.57079 6.08824C6.53208 6.6474 6.31495 7.15549 5.95913 7.5191C5.63302 7.85232 5.22802 8.02026 4.81905 7.99178L4.81823 7.99181C3.93038 7.93095 3.26986 6.97704 3.34575 5.86588Z" fill="#54ADFF"/>
<path d="M10.6413 8.64674C12.403 9.46825 14.5978 8.50366 15.5337 6.4965C16.4699 4.48884 15.7982 2.1872 14.0365 1.36569C12.2749 0.544262 10.0802 1.50926 9.144 3.51692C8.20804 5.52408 8.87973 7.82531 10.6413 8.64674ZM13.442 2.64068C14.5006 3.13431 14.8671 4.59743 14.2587 5.90196C13.6507 7.206 12.2944 7.86538 11.2358 7.37175C10.1772 6.87812 9.81091 5.41549 10.419 4.11146C11.0273 2.80692 12.3834 2.14705 13.442 2.64068Z" fill="#54ADFF"/>
<path d="M15.7437 12.1141L15.7439 12.1142C15.973 12.3305 16.2294 12.5024 16.5047 12.6308C17.7895 13.2299 19.4776 12.8786 20.6256 11.6643C21.2865 10.9654 21.6763 10.0822 21.7231 9.17769C21.7722 8.23102 21.4445 7.37435 20.8004 6.76527C20.1561 6.15653 19.2819 5.8774 18.3394 5.97975C17.4389 6.07767 16.5793 6.51648 15.9189 7.21567C14.5251 8.69034 14.4466 10.8878 15.7437 12.1141ZM16.9413 8.18197C17.3726 7.72545 17.923 7.44025 18.4915 7.37844C19.0174 7.32122 19.4943 7.46662 19.8341 7.78771C20.1736 8.10889 20.3455 8.57654 20.3181 9.10483C20.2885 9.67571 20.0348 10.2415 19.6032 10.6978C18.7422 11.6088 17.4444 11.7855 16.7102 11.0918C15.9768 10.3982 16.0804 9.09291 16.9413 8.18197Z" fill="#54ADFF"/>
<path d="M22.6699 14.8269L22.6696 14.8262C21.8732 13.3622 19.8748 12.9039 18.2144 13.8049C16.5546 14.707 15.8507 16.6321 16.645 18.0959C16.9346 18.6299 17.3843 19.0304 17.9193 19.2798C18.8518 19.7147 20.0439 19.6911 21.1004 19.1182C22.7601 18.2161 23.4642 16.2911 22.6699 14.8269ZM20.4293 17.8818C19.4491 18.4133 18.3064 18.2084 17.8816 17.4249C17.4569 16.6424 17.9076 15.5729 18.8859 15.0411C19.5359 14.6884 20.2581 14.6603 20.7949 14.9107C21.0664 15.0373 21.2906 15.2351 21.4337 15.4984C21.8576 16.2812 21.4069 17.3503 20.4293 17.8818Z" fill="#54ADFF"/>
</g>
<defs>
<clipPath id="clip0_31009_547">
<rect width="24" height="24" fill="white"/>
</clipPath>
</defs>
</svg>

<svg xmlns="http://www.w3.org/2000/svg" width="24" height="24" fill="none">
  <g fill="#54ADFF" clip-path="url(#a)">
    <path d="M15.361 14.362a5.82 5.82 0 0 0-3.322-4.518 5.82 5.82 0 0 0-5.596.36l-4.074 2.579a3.675 3.675 0 0 0-1.473 1.795 3.674 3.674 0 0 0-.113 2.32 3.675 3.675 0 0 0 1.294 1.93c.631.491 1.388.76 2.189.778l.052.001a7.271 7.271 0 0 1 5.24 2.467 3.68 3.68 0 0 0 2.002 1.177 3.675 3.675 0 0 0 2.31-.25 3.675 3.675 0 0 0 1.705-1.577c.388-.7.536-1.49.43-2.283l-.644-4.779Zm-2.074 7.359c-.927.421-2 .19-2.672-.575a8.662 8.662 0 0 0-2.85-2.136 8.662 8.662 0 0 0-3.467-.81l-.035-.001a2.28 2.28 0 0 1-2.124-1.677 2.28 2.28 0 0 1 .982-2.55l4.075-2.58a4.418 4.418 0 0 1 4.249-.273 4.419 4.419 0 0 1 2.522 3.43l.643 4.78a2.28 2.28 0 0 1-1.323 2.392ZM4.721 9.395c.828.058 1.624-.259 2.244-.892.59-.602.948-1.426 1.01-2.318.06-.892-.182-1.757-.682-2.435-.527-.711-1.272-1.135-2.099-1.192-1.662-.115-3.12 1.325-3.252 3.211-.103 1.502.668 2.84 1.825 3.38.296.137.617.223.954.246Zm-1.375-3.53c.077-1.11.863-1.965 1.752-1.903.16.01.316.052.463.12.227.106.432.277.6.505.303.409.448.942.41 1.501-.039.56-.256 1.067-.612 1.431-.326.333-.731.501-1.14.473-.889-.061-1.55-1.015-1.473-2.126ZM10.641 8.647c1.762.821 3.957-.143 4.893-2.15.936-2.008.264-4.31-1.498-5.131-1.761-.822-3.956.143-4.892 2.15-.936 2.008-.264 4.31 1.497 5.13Zm2.801-6.006c1.059.493 1.425 1.956.817 3.261-.608 1.304-1.965 1.963-3.023 1.47-1.059-.494-1.425-1.957-.817-3.26.608-1.305 1.964-1.965 3.023-1.471ZM15.744 12.114c.229.216.485.388.76.517 1.285.599 2.974.248 4.122-.967.66-.699 1.05-1.582 1.097-2.486.05-.947-.278-1.804-.923-2.413-.644-.608-1.518-.888-2.46-.785-.901.098-1.76.536-2.421 1.236-1.394 1.474-1.472 3.672-.175 4.898Zm1.197-3.932c.432-.457.982-.742 1.55-.804.526-.057 1.003.089 1.343.41.34.32.512.789.484 1.317-.03.57-.283 1.136-.715 1.593-.86.91-2.159 1.088-2.893.394-.733-.694-.63-2 .231-2.91ZM22.67 14.827c-.797-1.465-2.795-1.923-4.456-1.022-1.66.902-2.363 2.827-1.569 4.29.29.535.74.935 1.274 1.185.933.435 2.125.411 3.181-.162 1.66-.902 2.364-2.827 1.57-4.291Zm-2.24 3.055c-.98.531-2.124.326-2.548-.457-.425-.783.026-1.852 1.004-2.384.65-.353 1.372-.38 1.909-.13.271.126.496.324.639.587.424.783-.027 1.852-1.005 2.384Z"/>
  </g>
  <defs>
    <clipPath id="a">
      <path fill="#fff" d="M0 0h24v24H0z"/>
    </clipPath>
  </defs>
</svg>
